app/assets/images/heroicon/mini/pencil-square.svg

<svg width="20" height="20" viewBox="0 0 20 20" fill="none" xmlns="http://www.w3.org/2000/svg">
<path fill-rule="evenodd" clip-rule="evenodd" d="M5.43306 13.9163L6.69485 10.7618C6.89603 10.2589 7.19728 9.802 7.58033 9.41896L14.4995 2.50023C15.3279 1.6718 16.6711 1.6718 17.4995 2.50023C18.3279 3.32865 18.3279 4.6718 17.4995 5.50023L10.5803 12.419C10.1973 12.802 9.74042 13.1033 9.23746 13.3044L6.08299 14.5662C5.67484 14.7295 5.2698 14.3244 5.43306 13.9163ZM2.5 5.74951C2.5 5.05916 3.05964 4.49951 3.75 4.49951H10C10.4142 4.49951 10.75 4.16373 10.75 3.74951C10.75 3.3353 10.4142 2.99951 10 2.99951H3.75C2.23122 2.99951 1 4.23073 1 5.74951V16.2495C1 17.7683 2.23122 18.9995 3.75 18.9995H14.25C15.7688 18.9995 17 17.7683 17 16.2495V9.99951C17 9.5853 16.6642 9.24951 16.25 9.24951C15.8358 9.24951 15.5 9.5853 15.5 9.99951V16.2495C15.5 16.9399 14.9404 17.4995 14.25 17.4995H3.75C3.05964 17.4995 2.5 16.9399 2.5 16.2495V5.74951Z" fill="#0F172A"/>
</svg>

<svg xmlns="http://www.w3.org/2000/svg" viewBox="0 0 20 20" fill="currentColor" aria-hidden="true">
  <path fill-rule="evenodd" d="M5.433 13.916l1.262-3.154a4 4 0 01.885-1.343L14.5 2.5a2.121 2.121 0 113 3l-6.92 6.919c-.383.383-.84.684-1.343.885l-3.154 1.262a.5.5 0 01-.65-.65zM2.5 5.75c0-.69.56-1.25 1.25-1.25H10A.75.75 0 0010 3H3.75A2.75 2.75 0 001 5.75v10.5A2.75 2.75 0 003.75 19h10.5A2.75 2.75 0 0017 16.25V10a.75.75 0 00-1.5 0v6.25c0 .69-.56 1.25-1.25 1.25H3.75c-.69 0-1.25-.56-1.25-1.25V5.75z" clip-rule="evenodd"/>
</svg>
